packages/icons/src/assets/arrows-diagonal-in.svg

<svg xmlns="http://www.w3.org/2000/svg" width="16" height="16" viewBox="0 0 16 16"><path d="M6.37402 9C6.71909 9.00013 6.99902 9.2799 6.99902 9.625V14.25H5.74902V11.1348L2.81641 14.0674L2.37402 14.5088L1.49023 13.625L1.93164 13.1826L4.86426 10.25H1.74902V9H6.37402ZM14.5088 2.37402L14.0674 2.81641L11.1348 5.74902H14.25V6.99902H9.625C9.2799 6.99902 9.00013 6.71909 9 6.37402V1.74902H10.25V4.86426L13.1826 1.93164L13.625 1.49023L14.5088 2.37402Z"/></svg>

<svg xmlns="http://www.w3.org/2000/svg" width="16" height="16" viewBox="0 0 16 16"><path d="M6.374 9c.345 0 .625.28.625.625v4.625h-1.25v-3.115l-2.933 2.932-.442.442-.884-.884.442-.442 2.932-2.933H1.75V9zm8.135-6.626-.442.442-2.932 2.933h3.115v1.25H9.625A.625.625 0 0 1 9 6.374V1.749h1.25v3.115l2.933-2.932.442-.442z"/></svg>
